Newaita-dark/apps/64/accessories-camera.svg

<?xml version="1.0" encoding="UTF-8"?>
<svg xmlns="http://www.w3.org/2000/svg" xmlns:xlink="http://www.w3.org/1999/xlink" width="64pt" height="64pt" viewBox="0 0 64 64" version="1.1">
<defs>
<radialGradient id="radial0" gradientUnits="userSpaceOnUse" cx="450.908936" cy="189.579361" fx="450.908936" fy="189.579361" r="21.166656" gradientTransform="matrix(0.000000348341,-0.156265,-0.281277,-0.000000203077,87.061739,127.190659)">
<stop offset="0" style="stop-color:rgb(0%,0%,0%);stop-opacity:0.313725;"/>
<stop offset="0.222222" style="stop-color:rgb(0%,0%,0%);stop-opacity:0.27451;"/>
<stop offset="1" style="stop-color:rgb(0%,0%,0%);stop-opacity:0;"/>
</radialGradient>
<radialGradient id="radial1" gradientUnits="userSpaceOnUse" cx="450.908936" cy="189.579361" fx="450.908936" fy="189.579361" r="21.166656" gradientTransform="matrix(-0.000000348341,0.156265,0.281277,0.000000203077,-23.555673,-15.054964)">
<stop offset="0" style="stop-color:rgb(0%,0%,0%);stop-opacity:0.313725;"/>
<stop offset="0.222222" style="stop-color:rgb(0%,0%,0%);stop-opacity:0.27451;"/>
<stop offset="1" style="stop-color:rgb(0%,0%,0%);stop-opacity:0;"/>
</radialGradient>
<radialGradient id="radial2" gradientUnits="userSpaceOnUse" cx="450.908936" cy="189.579361" fx="450.908936" fy="189.579361" r="21.166656" gradientTransform="matrix(-0.000000348341,-0.156265,0.281277,-0.000000203077,-23.555673,127.190659)">
<stop offset="0" style="stop-color:rgb(0%,0%,0%);stop-opacity:0.313725;"/>
<stop offset="0.222222" style="stop-color:rgb(0%,0%,0%);stop-opacity:0.27451;"/>
<stop offset="1" style="stop-color:rgb(0%,0%,0%);stop-opacity:0;"/>
</radialGradient>
<radialGradient id="radial3" gradientUnits="userSpaceOnUse" cx="450.908936" cy="189.579361" fx="450.908936" fy="189.579361" r="21.166656" gradientTransform="matrix(0.000000348341,0.156265,-0.281277,0.000000203077,87.061735,-15.054965)">
<stop offset="0" style="stop-color:rgb(0%,0%,0%);stop-opacity:0.313725;"/>
<stop offset="0.222222" style="stop-color:rgb(0%,0%,0%);stop-opacity:0.27451;"/>
<stop offset="1" style="stop-color:rgb(0%,0%,0%);stop-opacity:0;"/>
</radialGradient>
<linearGradient id="linear0" gradientUnits="userSpaceOnUse" x1="255.323059" y1="233.5" x2="255.323044" y2="254.666656" gradientTransform="matrix(0.0267201,0,0,0.125012,24.930772,26.877567)">
<stop offset="0" style="stop-color:rgb(0%,0%,0%);stop-opacity:0.27451;"/>
<stop offset="1" style="stop-color:rgb(0%,0%,0%);stop-opacity:0;"/>
</linearGradient>
<linearGradient id="linear1" gradientUnits="userSpaceOnUse" x1="254" y1="-168.666672" x2="254" y2="233.5" gradientTransform="matrix(0.125012,0,0,0.125012,0,26.877566)">
<stop offset="0" style="stop-color:rgb(56.470588%,64.313725%,68.235294%);stop-opacity:1;"/>
<stop offset="1" style="stop-color:rgb(47.058824%,56.470588%,61.176471%);stop-opacity:1;"/>
</linearGradient>
<linearGradient id="linear2" gradientUnits="userSpaceOnUse" x1="254" y1="-31.083334" x2="254" y2="95.916664" gradientTransform="matrix(0.354201,0,0,-0.354201,-58.213906,42.412041)">
<stop offset="0" style="stop-color:rgb(38.039216%,38.039216%,38.039216%);stop-opacity:1;"/>
<stop offset="1" style="stop-color:rgb(25.882353%,25.882353%,25.882353%);stop-opacity:1;"/>
</linearGradient>
<linearGradient id="linear3" gradientUnits="userSpaceOnUse" x1="254" y1="-136.916656" x2="254" y2="201.75" gradientTransform="matrix(3.779528,0,0,3.779528,-0.000000262818,812.59845)">
<stop offset="0" style="stop-color:rgb(45.882353%,45.882353%,45.882353%);stop-opacity:1;"/>
<stop offset="1" style="stop-color:rgb(38.039216%,38.039216%,38.039216%);stop-opacity:1;"/>
</linearGradient>
<linearGradient id="linear4" gradientUnits="userSpaceOnUse" x1="254" y1="-136.916656" x2="254" y2="201.750015" gradientTransform="matrix(3.779528,0,0,3.779528,0.0000150706,812.598389)">
<stop offset="0" style="stop-color:rgb(45.882353%,45.882353%,45.882353%);stop-opacity:1;"/>
<stop offset="1" style="stop-color:rgb(38.039216%,38.039216%,38.039216%);stop-opacity:1;"/>
</linearGradient>
<linearGradient id="linear5" gradientUnits="userSpaceOnUse" x1="254" y1="-136.916656" x2="254" y2="201.75" gradientTransform="matrix(3.779528,0,0,3.779528,0.0000122325,812.598389)">
<stop offset="0" style="stop-color:rgb(45.882353%,45.882353%,45.882353%);stop-opacity:1;"/>
<stop offset="1" style="stop-color:rgb(38.039216%,38.039216%,38.039216%);stop-opacity:1;"/>
</linearGradient>
<linearGradient id="linear6" gradientUnits="userSpaceOnUse" x1="254" y1="-136.916656" x2="254" y2="201.75" gradientTransform="matrix(3.779528,0,0,3.779528,0.0000114517,812.598389)">
<stop offset="0" style="stop-color:rgb(45.882353%,45.882353%,45.882353%);stop-opacity:1;"/>
<stop offset="1" style="stop-color:rgb(38.039216%,38.039216%,38.039216%);stop-opacity:1;"/>
</linearGradient>
<linearGradient id="linear7" gradientUnits="userSpaceOnUse" x1="254" y1="-136.916656" x2="254" y2="201.75" gradientTransform="matrix(3.779528,0,0,3.779528,0.00000924297,812.598389)">
<stop offset="0" style="stop-color:rgb(45.882353%,45.882353%,45.882353%);stop-opacity:1;"/>
<stop offset="1" style="stop-color:rgb(38.039216%,38.039216%,38.039216%);stop-opacity:1;"/>
</linearGradient>
<linearGradient id="linear8" gradientUnits="userSpaceOnUse" x1="254" y1="-136.916656" x2="254" y2="201.750015" gradientTransform="matrix(3.779528,0,0,3.779528,0.0000140149,812.598389)">
<stop offset="0" style="stop-color:rgb(45.882353%,45.882353%,45.882353%);stop-opacity:1;"/>
<stop offset="1" style="stop-color:rgb(38.039216%,38.039216%,38.039216%);stop-opacity:1;"/>
</linearGradient>
<linearGradient id="linear9" gradientUnits="userSpaceOnUse" x1="254" y1="-73.416664" x2="254" y2="138.25" >
<stop offset="0" style="stop-color:rgb(38.039216%,38.039216%,38.039216%);stop-opacity:1;"/>
<stop offset="1" style="stop-color:rgb(25.882353%,25.882353%,25.882353%);stop-opacity:1;"/>
</linearGradient>
</defs>
<g id="surface1">
<path style=" stroke:none;fill-rule:nonzero;fill:url(#radial0);" d="M 34.398438 56.066406 L 39.691406 56.066406 L 39.691406 53.421875 L 34.398438 53.421875 Z M 34.398438 56.066406 "/>
<path style=" stroke:none;fill-rule:nonzero;fill:url(#radial1);" d="M 29.105469 56.066406 L 23.816406 56.066406 L 23.816406 58.714844 L 29.105469 58.714844 Z M 29.105469 56.066406 "/>
<path style=" stroke:none;fill-rule:nonzero;fill:url(#radial2);" d="M 29.105469 56.066406 L 23.816406 56.066406 L 23.816406 53.421875 L 29.105469 53.421875 Z M 29.105469 56.066406 "/>
<path style=" stroke:none;fill-rule:nonzero;fill:url(#radial3);" d="M 34.398438 56.066406 L 39.691406 56.066406 L 39.691406 58.714844 L 34.398438 58.714844 Z M 34.398438 56.066406 "/>
<path style=" stroke:none;fill-rule:nonzero;fill:url(#linear0);" d="M 29.105469 55.40625 L 34.398438 55.40625 L 34.398438 58.714844 L 29.105469 58.714844 Z M 29.105469 55.40625 "/>
<path style=" stroke:none;fill-rule:nonzero;fill:url(#linear1);" d="M 31.753906 5.792969 C 45.636719 5.792969 56.890625 17.046875 56.890625 30.929688 C 56.890625 44.8125 45.636719 56.066406 31.753906 56.066406 C 17.871094 56.066406 6.613281 44.8125 6.613281 30.929688 C 6.613281 17.046875 17.871094 5.792969 31.753906 5.792969 Z M 31.753906 5.792969 "/>
<path style=" stroke:none;fill-rule:nonzero;fill:url(#linear2);" d="M 31.753906 49.453125 C 43.445312 49.453125 52.921875 41.160156 52.921875 30.929688 L 52.921875 29.605469 C 52.921875 19.378906 43.445312 11.085938 31.753906 11.085938 C 20.0625 11.085938 10.585938 19.378906 10.585938 29.605469 L 10.585938 30.929688 C 10.585938 41.160156 20.0625 49.453125 31.753906 49.453125 Z M 31.753906 49.453125 "/>
<path style=" stroke:none;fill-rule:nonzero;fill:rgb(0%,0%,0%);fill-opacity:0.196078;" d="M 31.753906 56.066406 C 17.828125 56.066406 6.613281 44.855469 6.613281 30.929688 C 6.613281 30.847656 6.617188 30.765625 6.617188 30.683594 C 6.746094 44.496094 17.910156 55.574219 31.753906 55.574219 C 45.597656 55.574219 56.757812 44.496094 56.890625 30.683594 C 56.890625 30.765625 56.890625 30.847656 56.890625 30.929688 C 56.890625 44.855469 45.679688 56.066406 31.753906 56.066406 Z M 31.753906 56.066406 "/>
<path style=" stroke:none;fill-rule:nonzero;fill:rgb(100%,100%,100%);fill-opacity:0.392157;" d="M 31.753906 5.792969 C 17.828125 5.792969 6.613281 17.003906 6.613281 30.929688 C 6.613281 31.011719 6.617188 31.09375 6.617188 31.175781 C 6.746094 17.363281 17.910156 6.285156 31.753906 6.285156 C 45.597656 6.285156 56.757812 17.363281 56.890625 31.175781 C 56.890625 31.09375 56.890625 31.011719 56.890625 30.929688 C 56.890625 17.003906 45.679688 5.792969 31.753906 5.792969 Z M 31.753906 5.792969 "/>
<path style="fill-rule:nonzero;fill:url(#linear3);stroke-width:11.338583;stroke-linecap:round;stroke-linejoin:miter;stroke:rgb(12.941177%,12.941177%,12.941177%);stroke-opacity:1;stroke-miterlimit:4;" d="M 429.407835 576.204848 C 360.319941 678.360452 320.048194 801.891969 320.048194 935.107601 C 320.048194 1289.640693 605.493391 1575.08589 960.026483 1575.08589 C 975.261249 1575.08589 990.377917 1574.613494 1005.258386 1573.550604 Z M 429.407835 576.204848 " transform="matrix(0.0330761,0,0,0.0330761,0,0)"/>
<path style="fill-rule:nonzero;fill:url(#linear4);stroke-width:11.338583;stroke-linecap:round;stroke-linejoin:miter;stroke:rgb(12.941177%,12.941177%,12.941177%);stroke-opacity:1;stroke-miterlimit:4;" d="M 960.026483 295.129312 C 605.493391 295.129312 320.048194 580.57451 320.048194 935.107601 C 320.048194 1068.323233 360.319941 1191.85475 429.407835 1294.010354 L 1005.258386 296.664599 C 990.377917 295.601708 975.261249 295.129312 960.026483 295.129312 Z M 960.026483 295.129312 " transform="matrix(0.0330761,0,0,0.0330761,0,0)"/>
<path style="fill-rule:nonzero;fill:url(#linear5);stroke-width:11.338583;stroke-linecap:round;stroke-linejoin:miter;stroke:rgb(12.941177%,12.941177%,12.941177%);stroke-opacity:1;stroke-miterlimit:4;" d="M 960.026483 295.129312 C 705.99561 295.129312 487.394427 441.690127 383.939734 655.094956 L 1536.113232 655.094956 C 1432.54044 441.690127 1214.057355 295.129312 960.026483 295.129312 Z M 960.026483 295.129312 " transform="matrix(0.0330761,0,0,0.0330761,0,0)"/>
<path style="fill-rule:nonzero;fill:url(#linear6);stroke-width:11.338583;stroke-linecap:round;stroke-linejoin:miter;stroke:rgb(12.941177%,12.941177%,12.941177%);stroke-opacity:1;stroke-miterlimit:4;" d="M 960.026483 295.129312 C 944.791716 295.129312 929.675049 295.601708 914.67648 296.664599 L 1490.527031 1294.010354 C 1559.733025 1191.85475 1600.004772 1068.323233 1600.004772 935.107601 C 1600.004772 580.57451 1314.559574 295.129312 960.026483 295.129312 Z M 960.026483 295.129312 " transform="matrix(0.0330761,0,0,0.0330761,0,0)"/>
<path style="fill-rule:nonzero;fill:url(#linear7);stroke-width:11.338583;stroke-linecap:round;stroke-linejoin:miter;stroke:rgb(12.941177%,12.941177%,12.941177%);stroke-opacity:1;stroke-miterlimit:4;" d="M 1490.527031 576.204848 L 960.026483 1495.132891 L 1005.258386 1573.550604 C 1338.533664 1550.403206 1600.004772 1274.405926 1600.004772 935.107601 C 1600.004772 801.891969 1559.733025 678.360452 1490.527031 576.204848 Z M 1490.527031 576.204848 " transform="matrix(0.0330761,0,0,0.0330761,0,0)"/>
<path style="fill-rule:nonzero;fill:url(#linear8);stroke-width:11.338583;stroke-linecap:round;stroke-linejoin:miter;stroke:rgb(12.941177%,12.941177%,12.941177%);stroke-opacity:1;stroke-miterlimit:4;" d="M 798.349 1215.120246 L 1005.258386 1573.550604 C 1239.80293 1557.252946 1438.799685 1415.770387 1536.113232 1215.120246 Z M 798.349 1215.120246 " transform="matrix(0.0330761,0,0,0.0330761,0,0)"/>
<path style="fill-rule:nonzero;fill:url(#linear9);stroke-width:3;stroke-linecap:round;stroke-linejoin:round;stroke:rgb(12.941177%,12.941177%,12.941177%);stroke-opacity:1;stroke-miterlimit:4;" d="M 254.006994 -31.080063 C 289.066146 -31.080063 317.50093 -2.645279 317.50093 32.413873 C 317.50093 67.473025 289.066146 95.90781 254.006994 95.90781 C 218.916595 95.90781 190.513057 67.473025 190.513057 32.413873 C 190.513057 -2.645279 218.916595 -31.080063 254.006994 -31.080063 Z M 254.006994 -31.080063 " transform="matrix(0.125012,0,0,0.125012,0,26.877566)"/>
<path style=" stroke:none;fill-rule:nonzero;fill:rgb(12.941177%,12.941177%,12.941177%);fill-opacity:1;" d="M 31.753906 5.605469 C 17.726562 5.605469 6.425781 16.902344 6.425781 30.929688 C 6.425781 44.957031 17.726562 56.253906 31.753906 56.253906 C 45.78125 56.253906 57.078125 44.957031 57.078125 30.929688 C 57.078125 16.902344 45.78125 5.605469 31.753906 5.605469 Z M 31.753906 5.980469 C 45.578125 5.980469 56.703125 17.105469 56.703125 30.929688 C 56.703125 44.753906 45.578125 55.878906 31.753906 55.878906 C 17.925781 55.878906 6.800781 44.753906 6.800781 30.929688 C 6.800781 17.105469 17.925781 5.980469 31.753906 5.980469 Z M 31.753906 5.980469 "/>
<path style=" stroke:none;fill-rule:nonzero;fill:rgb(100%,100%,100%);fill-opacity:0.196078;" d="M 27.242188 26.21875 C 28.792969 24.667969 30.679688 24.039062 31.453125 24.816406 C 32.226562 25.589844 31.601562 27.476562 30.050781 29.027344 C 28.5 30.574219 26.613281 31.203125 25.839844 30.429688 C 25.066406 29.652344 25.691406 27.769531 27.242188 26.21875 Z M 27.242188 26.21875 "/>
</g>
</svg>

<svg xmlns="http://www.w3.org/2000/svg" width="64pt" height="64pt" viewBox="0 0 64 64"><defs><radialGradient id="a" gradientUnits="userSpaceOnUse" cx="450.909" cy="189.579" fx="450.909" fy="189.579" r="21.167" gradientTransform="matrix(0 -.15626 -.28128 0 87.062 127.19)"><stop offset="0" stop-opacity=".314"/><stop offset=".222" stop-opacity=".275"/><stop offset="1" stop-opacity="0"/></radialGradient><radialGradient id="b" gradientUnits="userSpaceOnUse" cx="450.909" cy="189.579" fx="450.909" fy="189.579" r="21.167" gradientTransform="matrix(0 .15626 .28128 0 -23.556 -15.055)"><stop offset="0" stop-opacity=".314"/><stop offset=".222" stop-opacity=".275"/><stop offset="1" stop-opacity="0"/></radialGradient><radialGradient id="c" gradientUnits="userSpaceOnUse" cx="450.909" cy="189.579" fx="450.909" fy="189.579" r="21.167" gradientTransform="matrix(0 -.15626 .28128 0 -23.556 127.19)"><stop offset="0" stop-opacity=".314"/><stop offset=".222" stop-opacity=".275"/><stop offset="1" stop-opacity="0"/></radialGradient><radialGradient id="d" gradientUnits="userSpaceOnUse" cx="450.909" cy="189.579" fx="450.909" fy="189.579" r="21.167" gradientTransform="matrix(0 .15626 -.28128 0 87.062 -15.055)"><stop offset="0" stop-opacity=".314"/><stop offset=".222" stop-opacity=".275"/><stop offset="1" stop-opacity="0"/></radialGradient><linearGradient id="e" gradientUnits="userSpaceOnUse" x1="255.323" y1="233.5" x2="255.323" y2="254.667" gradientTransform="matrix(.02672 0 0 .12501 24.93 26.878)"><stop offset="0" stop-opacity=".275"/><stop offset="1" stop-opacity="0"/></linearGradient><linearGradient id="f" gradientUnits="userSpaceOnUse" x1="254" y1="-168.667" x2="254" y2="233.5" gradientTransform="translate(0 26.878) scale(.12501)"><stop offset="0" stop-color="#90a4ae"/><stop offset="1" stop-color="#78909c"/></linearGradient><linearGradient id="g" gradientUnits="userSpaceOnUse" x1="254" y1="-31.083" x2="254" y2="95.917" gradientTransform="matrix(.3542 0 0 -.3542 -58.214 42.412)"><stop offset="0" stop-color="#616161"/><stop offset="1" stop-color="#424242"/></linearGradient><linearGradient id="h" gradientUnits="userSpaceOnUse" x1="254" y1="-136.917" x2="254" y2="201.75" gradientTransform="matrix(3.77953 0 0 3.77953 0 812.598)"><stop offset="0" stop-color="#757575"/><stop offset="1" stop-color="#616161"/></linearGradient><linearGradient id="i" gradientUnits="userSpaceOnUse" x1="254" y1="-136.917" x2="254" y2="201.75" gradientTransform="matrix(3.77953 0 0 3.77953 0 812.598)"><stop offset="0" stop-color="#757575"/><stop offset="1" stop-color="#616161"/></linearGradient><linearGradient id="j" gradientUnits="userSpaceOnUse" x1="254" y1="-136.917" x2="254" y2="201.75" gradientTransform="matrix(3.77953 0 0 3.77953 0 812.598)"><stop offset="0" stop-color="#757575"/><stop offset="1" stop-color="#616161"/></linearGradient><linearGradient id="k" gradientUnits="userSpaceOnUse" x1="254" y1="-136.917" x2="254" y2="201.75" gradientTransform="matrix(3.77953 0 0 3.77953 0 812.598)"><stop offset="0" stop-color="#757575"/><stop offset="1" stop-color="#616161"/></linearGradient><linearGradient id="l" gradientUnits="userSpaceOnUse" x1="254" y1="-136.917" x2="254" y2="201.75" gradientTransform="matrix(3.77953 0 0 3.77953 0 812.598)"><stop offset="0" stop-color="#757575"/><stop offset="1" stop-color="#616161"/></linearGradient><linearGradient id="m" gradientUnits="userSpaceOnUse" x1="254" y1="-136.917" x2="254" y2="201.75" gradientTransform="matrix(3.77953 0 0 3.77953 0 812.598)"><stop offset="0" stop-color="#757575"/><stop offset="1" stop-color="#616161"/></linearGradient><linearGradient id="n" gradientUnits="userSpaceOnUse" x1="254" y1="-73.417" x2="254" y2="138.25"><stop offset="0" stop-color="#616161"/><stop offset="1" stop-color="#424242"/></linearGradient></defs><path d="M34.398 56.066h5.293v-2.644h-5.293zm0 0" fill="url(#a)"/><path d="M29.105 56.066h-5.289v2.649h5.29zm0 0" fill="url(#b)"/><path d="M29.105 56.066h-5.289v-2.644h5.29zm0 0" fill="url(#c)"/><path d="M34.398 56.066h5.293v2.649h-5.293zm0 0" fill="url(#d)"/><path d="M29.105 55.406h5.293v3.309h-5.293zm0 0" fill="url(#e)"/><path d="M31.754 5.793c13.883 0 25.137 11.254 25.137 25.137 0 13.883-11.254 25.136-25.137 25.136-13.883 0-25.14-11.254-25.14-25.136 0-13.883 11.257-25.137 25.14-25.137zm0 0" fill="url(#f)"/><path d="M31.754 49.453c11.691 0 21.168-8.293 21.168-18.523v-1.325c0-10.226-9.477-18.52-21.168-18.52-11.692 0-21.168 8.294-21.168 18.52v1.325c0 10.23 9.476 18.523 21.168 18.523zm0 0" fill="url(#g)"/><path d="M31.754 56.066A25.085 25.085 0 0 1 6.614 30.93l.003-.246c.13 13.812 11.293 24.89 25.137 24.89a25.082 25.082 0 0 0 25.137-24.89v.246a25.082 25.082 0 0 1-25.137 25.136zm0 0" fill-opacity=".196"/><path d="M31.754 5.793A25.085 25.085 0 0 0 6.614 30.93l.003.246c.13-13.813 11.293-24.89 25.137-24.89a25.082 25.082 0 0 1 25.137 24.89v-.246A25.082 25.082 0 0 0 31.754 5.793zm0 0" fill="#fff" fill-opacity=".392"/><path d="M429.408 576.205c-69.088 102.155-109.36 225.687-109.36 358.903 0 354.533 285.445 639.978 639.978 639.978 15.235 0 30.352-.473 45.232-1.535zm0 0" transform="scale(.03308)" fill="url(#h)" stroke-width="11.339" stroke-linecap="round" stroke="#212121"/><path d="M960.026 295.13c-354.533 0-639.978 285.445-639.978 639.978 0 133.215 40.272 256.747 109.36 358.902l575.85-997.345c-14.88-1.063-29.997-1.536-45.232-1.536zm0 0" transform="scale(.03308)" fill="url(#i)" stroke-width="11.339" stroke-linecap="round" stroke="#212121"/><path d="M960.026 295.13c-254.03 0-472.632 146.56-576.086 359.965h1152.173C1432.54 441.69 1214.057 295.129 960.026 295.129zm0 0" transform="scale(.03308)" fill="url(#j)" stroke-width="11.339" stroke-linecap="round" stroke="#212121"/><path d="M960.026 295.13c-15.234 0-30.351.472-45.35 1.535l575.851 997.345c69.206-102.155 109.478-225.687 109.478-358.902 0-354.533-285.445-639.979-639.979-639.979zm0 0" transform="scale(.03308)" fill="url(#k)" stroke-width="11.339" stroke-linecap="round" stroke="#212121"/><path d="M1490.527 576.205l-530.5 918.928 45.231 78.418c333.276-23.148 594.747-299.145 594.747-638.443 0-133.216-40.272-256.748-109.478-358.903zm0 0" transform="scale(.03308)" fill="url(#l)" stroke-width="11.339" stroke-linecap="round" stroke="#212121"/><path d="M798.349 1215.12l206.91 358.43c234.544-16.297 433.54-157.78 530.854-358.43zm0 0" transform="scale(.03308)" fill="url(#m)" stroke-width="11.339" stroke-linecap="round" stroke="#212121"/><path d="M254.007-31.08c35.06 0 63.494 28.435 63.494 63.494s-28.435 63.494-63.494 63.494c-35.09 0-63.494-28.435-63.494-63.494 0-35.06 28.404-63.494 63.494-63.494zm0 0" transform="translate(0 26.878) scale(.12501)" fill="url(#n)" stroke-width="3" stroke-linecap="round" stroke-linejoin="round" stroke="#212121"/><path d="M31.754 5.605c-14.027 0-25.328 11.297-25.328 25.325 0 14.027 11.3 25.324 25.328 25.324A25.272 25.272 0 0 0 57.078 30.93 25.272 25.272 0 0 0 31.754 5.605zm0 .375a24.892 24.892 0 0 1 24.95 24.95 24.892 24.892 0 0 1-24.95 24.949A24.892 24.892 0 0 1 6.8 30.929 24.892 24.892 0 0 1 31.754 5.98zm0 0" fill="#212121"/><path d="M27.242 26.219c1.551-1.551 3.438-2.18 4.211-1.403.774.774.149 2.66-1.402 4.211-1.551 1.547-3.438 2.176-4.211 1.403-.774-.778-.149-2.66 1.402-4.211zm0 0" fill="#fff" fill-opacity=".196"/></svg>
